X:1
T:Title
%%score { 1 | 2 }
L:1/8
M:4/4
K:D
V:1 treble nm="Grand Piano"
V:2 bass 
V:1
 z4 z2[Q:1/4=100] [DF][EG] | [FA][FA][FA][FA] [GB][FA][EG][DF] | [CE]6 [CE][DF] | %3
 [EG][B,EG][B,EG][EG] [DFA]2 [A,EG]2 | [A,DF]6 [A,DF][A,EG] | [FA][FA][FA][FA] [GB][FA][EG]F | %6
 B6 dB | [FA][FA][DA][DB] [DF]2[K:bass] [G,CE]2 | [F,D]6 z2 | [DFA]3 [DFA] [DGB][DFA][A,EG][A,DF] | %10
 [A,CE]2 [A,DF]2 [CEG]4 | [CEG]3 [EG] [DFA][EG][DF][CE] | [DF]2 [EG]2 [FA]4 | %13
 [FA][FA][GB][FA] [Fd]2 [FA]2 |[M:9/8] BBB c d2- ddB |[M:4/4] [FA][FA]AB F2 [CE]2 |[M:3/4] D6 |] %17
V:2
 z4 z2 [D,A,][D,A,] | [D,D][D,D][D,D][D,D] [D,D][D,D][D,A,][D,A,] | [A,,A,]6 [A,,A,][A,,A,] | %3
 [A,,A,]A,,A,,A,, A,,2 A,,2 | D,6 D,D, | [D,D][D,D][D,D][D,D] [D,D][D,D][D,A,][D,A,D] | %6
 [G,D]6 [G,B,G][G,DG] | [D,D][D,D]F,G, A,2 A,,2 | D,6 z2 | D,3 D, D,D,D,D, | A,,2 A,,2 A,,4 | %11
 A,,3 A,, A,,[A,,A,][A,,A,][A,,A,] | [D,A,]2 [D,A,]2 [D,D]4 | [D,D][D,D][D,D][D,D] [D,A,]2 [D,D]2 | %14
[M:9/8][K:treble] [G,DG][G,DG][G,DG] [G,CG] [G,B,G]2- [G,B,G][G,B,G][G,DG] | %15
[M:4/4][K:bass] [D,D][D,D][F,D][G,D] [A,D]2 [A,,G,]2 |[M:3/4] [D,F,]6 |] %17

